src/assets/images/pig.svg

<svg width="80" height="80" viewBox="0 0 80 80" fill="none" xmlns="http://www.w3.org/2000/svg">
<g clip-path="url(#clip0)">
<path d="M27.71 0.210007C35.95 0.210007 42.63 6.57001 42.63 14.41C42.6307 16.6045 42.0988 18.7664 41.08 20.71L41.93 20.63C42.7326 19.1453 43.3474 17.5665 43.76 15.93C47.0542 16.0144 50.3062 16.6919 53.36 17.93C56.0267 15.81 57.8033 14.4767 58.69 13.93C60.5766 12.6487 62.7995 11.9529 65.08 11.93C67.21 11.87 63 21 64 22C65 23 74.67 33.16 74.67 40.25H77.87C78.4167 40.2365 78.9467 40.4387 79.3453 40.813C79.7439 41.1873 79.9791 41.7036 80 42.25V48.33C79.9791 48.8764 79.7439 49.3927 79.3453 49.767C78.9467 50.1413 78.4167 50.3436 77.87 50.33H74.67C71.83 60.47 66.4967 67.2267 58.67 70.6V78.71C58.6703 78.8474 58.6423 78.9835 58.5878 79.1096C58.5332 79.2357 58.4532 79.3492 58.3528 79.4431C58.2524 79.5369 58.1337 79.609 58.0042 79.655C57.8747 79.7009 57.7371 79.7196 57.6 79.71H49.09C48.9537 79.7182 48.8172 79.6984 48.6889 79.6518C48.5605 79.6053 48.4431 79.5329 48.3438 79.4392C48.2445 79.3455 48.1654 79.2325 48.1114 79.1071C48.0575 78.9817 48.0298 78.8465 48.03 78.71V74.71C46.61 75.38 43.76 75.71 39.5 75.71C35.24 75.71 32.75 75.37 32.04 74.71V78.71C32.0403 78.8474 32.0123 78.9835 31.9578 79.1096C31.9032 79.2357 31.8232 79.3492 31.7228 79.4431C31.6224 79.5369 31.5037 79.609 31.3742 79.655C31.2447 79.7009 31.1071 79.7196 30.97 79.71H22.45C22.3129 79.7196 22.1753 79.7009 22.0458 79.655C21.9163 79.609 21.7976 79.5369 21.6972 79.4431C21.5968 79.3492 21.5168 79.2357 21.4622 79.1096C21.4077 78.9835 21.3797 78.8474 21.38 78.71V71.68C10.7133 62.8867 5.38 54.7767 5.38 47.35C5.38 47.35 2.18 45.35 0.05 48.35C0.05 48.35 -1.02 44.35 5.38 41.26C5.38 41.26 7.51 30.11 16.03 25.04C17.3129 26.2262 18.7491 27.2352 20.3 28.04C20.3 28.04 20.68 27.72 21.4 27.23C18.8672 26.1544 16.7025 24.3646 15.1699 22.0792C13.6374 19.7937 12.8035 17.1115 12.77 14.36C12.79 6.57001 19.47 0.210007 27.71 0.210007ZM63.38 14.07C62.129 14.3494 60.9416 14.8616 59.88 15.58C59.06 16.11 57.32 17.43 54.73 19.5L53.73 20.29L52.54 19.83C50.2355 18.9026 47.8174 18.2872 45.35 18C45.22 18.42 45.07 18.83 44.93 19.22C44.79 19.61 44.59 20.1 44.41 20.47H45.15C45.335 20.454 45.5214 20.4766 45.6972 20.5364C45.873 20.5962 46.0345 20.6919 46.1714 20.8174C46.3082 20.943 46.4175 21.0956 46.4923 21.2656C46.567 21.4356 46.6057 21.6193 46.6057 21.805C46.6057 21.9907 46.567 22.1744 46.4923 22.3444C46.4175 22.5144 46.3082 22.667 46.1714 22.7926C46.0345 22.9181 45.873 23.0138 45.6972 23.0736C45.5214 23.1334 45.335 23.156 45.15 23.14C36.6815 23.2665 28.4355 25.8703 21.43 30.63C21.1846 30.8034 20.8905 30.8944 20.59 30.89C20.3725 30.8947 20.157 30.8483 19.9607 30.7545C19.7645 30.6607 19.593 30.5222 19.46 30.35C19.3311 30.191 19.2451 30.0017 19.21 29.8L19.36 29.88C18.532 29.4828 17.7421 29.0109 17 28.47C16.61 28.2 16.25 27.92 15.89 27.63C13.104 29.8076 10.9015 32.6422 9.48 35.88C8.85675 37.2132 8.33201 38.5902 7.91 40C7.75 40.54 7.61 41.08 7.49 41.63L7.3 42.63L6.3 43.08C5.39089 43.4973 4.54033 44.0319 3.77 44.67V44.67C4.36308 44.7422 4.94447 44.8901 5.5 45.11C5.82353 45.2377 6.13765 45.3881 6.44 45.56H6.51L7.51 46.16V47.25C7.51 53.98 12.51 61.61 22.76 70.04L23.49 70.65V77.65H29.89V69.82L33.51 73.27C33.51 73.27 33.51 73.27 33.59 73.27C33.9703 73.3759 34.3581 73.4528 34.75 73.5C36.3304 73.6754 37.9201 73.7522 39.51 73.73C43.51 73.73 46.05 73.43 47.08 72.93L50.17 71.47V77.79H56.56V69.39L57.81 68.85C65 65.71 69.92 59.45 72.61 49.87L73 48.36H77.84V42.28H72.54V40.28C72.54 37.64 70.85 34 68 30C66.91 28.47 65.74 27 64.51 25.59C63.87 24.85 63.21 24.14 62.51 23.45C61.51 22.54 61.51 21.59 61.88 19.9C62.03 19.11 62.19 18.53 62.7 16.7L62.77 16.47C63.07 15.4 63.26 14.65 63.38 14.07ZM27.71 2.24001C20.65 2.24001 14.92 7.69001 14.92 14.41C14.9543 16.7635 15.6721 19.0563 16.9859 21.0093C18.2997 22.9623 20.1529 24.4912 22.32 25.41L23.71 26.03C28.3269 23.5671 33.3164 21.878 38.48 21.03L39.03 20.03C39.9957 18.2964 40.5018 16.3445 40.5 14.36C40.5 7.69001 34.77 2.24001 27.71 2.24001ZM28.42 6.50001V8.12001C29.5379 8.20125 30.6049 8.61967 31.48 9.32001L30.62 10.32C29.8282 9.63024 28.81 9.25643 27.76 9.27001C26.12 9.27001 25.44 9.96001 25.44 10.86C25.44 11.76 25.88 12.25 28.27 13.06C30.91 13.97 31.73 14.73 31.73 16.42C31.73 18.11 30.52 19.26 28.42 19.47V21.1H27.14V19.46C25.8779 19.3311 24.6935 18.7899 23.77 17.92L24.65 16.98C25.4986 17.8211 26.6357 18.3073 27.83 18.34C29.41 18.34 30.4 17.67 30.4 16.47C30.4 15.47 29.74 14.9 27.55 14.15C24.98 13.28 24.11 12.56 24.11 10.93C24.11 9.30001 25.3 8.33001 27.11 8.14001V6.50001H28.42Z" fill="#056DAE"/>
</g>
<defs>
<clipPath id="clip0">
<rect width="80" height="80" fill="white"/>
</clipPath>
</defs>
</svg>

<svg id="ico-ahorro-o" xmlns="http://www.w3.org/2000/svg" viewBox="0 0 80 80">
    <path d="M27.71.21c8.24,0,14.92,6.36,14.92,14.2a13.56,13.56,0,0,1-1.55,6.3l.85-.08a20.34,20.34,0,0,0,1.83-4.7,27.42,27.42,0,0,1,9.6,2q4-3.18,5.33-4a11.58,11.58,0,0,1,6.39-2C67.21,11.87,63,21,64,22S74.67,33.16,74.67,40.25h3.2a2.08,2.08,0,0,1,2.13,2v6.08a2.08,2.08,0,0,1-2.13,2h-3.2q-4.26,15.21-16,20.27v8.11a1,1,0,0,1-1.07,1H49.09a1,1,0,0,1-1.06-1h0v-4c-1.42.67-4.27,1-8.53,1s-6.75-.34-7.46-1v4a1,1,0,0,1-1.07,1H22.45a1,1,0,0,1-1.07-1V71.68q-16-13.19-16-24.33s-3.2-2-5.33,1c0,0-1.07-4,5.33-7.09,0,0,2.13-11.15,10.65-16.22a19.56,19.56,0,0,0,4.27,3s.38-.32,1.1-.81a14.17,14.17,0,0,1-8.63-12.87C12.79,6.57,19.47.21,27.71.21ZM63.38,14.07a10.22,10.22,0,0,0-3.5,1.51c-.82.53-2.56,1.85-5.15,3.92l-1,.79-1.19-.46A27.9,27.9,0,0,0,45.35,18c-.13.42-.28.83-.42,1.22s-.34.88-.52,1.25h.74a1.34,1.34,0,1,1,0,2.67,43.36,43.36,0,0,0-23.72,7.49,1.42,1.42,0,0,1-.84.26,1.39,1.39,0,0,1-1.13-.54,1.2,1.2,0,0,1-.25-.55l.15.08A15.08,15.08,0,0,1,17,28.47c-.39-.27-.75-.55-1.11-.84a21.38,21.38,0,0,0-6.41,8.25A30.13,30.13,0,0,0,7.91,40c-.16.54-.3,1.08-.42,1.63l-.19,1-1,.45a11.46,11.46,0,0,0-2.53,1.59l0,0a7,7,0,0,1,1.73.44,7.39,7.39,0,0,1,.94.45l.07,0,0,0h0l1,.6v1.09c0,6.73,5,14.36,15.25,22.79l.73.61v7h6.4V69.82l3.62,3.45,0,0s0,0,.08,0a7.8,7.8,0,0,0,1.16.23,38.32,38.32,0,0,0,4.76.23c4,0,6.54-.3,7.57-.8l3.09-1.46v6.32h6.39v-8.4l1.25-.54C65,65.71,69.92,59.45,72.61,49.87L73,48.36h4.84V42.28H72.54v-2C72.54,37.64,70.85,34,68,30c-1.09-1.53-2.26-3-3.49-4.41-.64-.74-1.3-1.45-2-2.14-1-.91-1-1.86-.63-3.55.15-.79.31-1.37.82-3.2l.07-.23C63.07,15.4,63.26,14.65,63.38,14.07ZM27.71,2.24c-7.06,0-12.79,5.45-12.79,12.17a12.14,12.14,0,0,0,7.4,11l1.39.62a47.86,47.86,0,0,1,14.77-5l.55-1a11.63,11.63,0,0,0,1.47-5.67C40.5,7.69,34.77,2.24,27.71,2.24Zm.71,4.26V8.12a5.54,5.54,0,0,1,3.06,1.2l-.86,1a4.27,4.27,0,0,0-2.86-1.05c-1.64,0-2.32.69-2.32,1.59s.44,1.39,2.83,2.2c2.64.91,3.46,1.67,3.46,3.36s-1.21,2.84-3.31,3.05V21.1H27.14V19.46a5.77,5.77,0,0,1-3.37-1.54l.88-.94a4.7,4.7,0,0,0,3.18,1.36c1.58,0,2.57-.67,2.57-1.87,0-1-.66-1.57-2.85-2.32-2.57-.87-3.44-1.59-3.44-3.22s1.19-2.6,3-2.79V6.5Z" />
</svg>
